X:6010
T:Swedish Bagpipe tune
A:Dalarna
D:Per Gudmundsen
M:4/4
O:Sweden
R:March
Z:Richard Robinson 
%%TUNEURL: http://www.leeds.ac.uk/music/Info/RRTuneBk/gettune/000008b8.html
%%ID:000008b8
K:A
A,2|\
E4 A4|c2 Ac e3d|c2BA BA Bc|\
d2 B2 FE FG|E6 :: EG|\
B2 B2 BA Bd|c2 A2 AG Ac|
B2 B2 BA Bc|e3d c2 BA|\
G3A B3c|e3d c2 BA|GA Bc dB GE|A4:|
